X:9005
T:It's a Long Way to Tipperary
R:March
C:Jack Judge 1912
O:England
Z:Paul Hardy's Session Tunebook 2015 (see www.paulhardy.net). Creative Commons cc by-nc-sa licenced.
M:4/4
L:1/8
Q:1/4=120
K:D
FG|"D"A2 A3 ABc|d2 f4 "D7"fe|"G"d2 B4 d2|"D"A6 "A7"FG|"D"A2 A3 ABc|d2 f4 cd|"E7"e2 B2 c2 d2|"A7"e8|
"D"A2 A4 Bc|d2 f6|"G"g2 B2 d2 e2|"F#7"f6 "A7"de|"D"f2 f2 fd ed|"G"B4 "D"A2 de|"E7"f2 "A7"d4 e2|"D"d6|]

